neru-light-classic/22x22/actions/edit-cut-symbolic.svg

<?xml version="1.0" encoding="UTF-8" standalone="no"?>
<svg
   xmlns:dc="http://purl.org/dc/elements/1.1/"
   xmlns:cc="http://creativecommons.org/ns#"
   xmlns:rdf="http://www.w3.org/1999/02/22-rdf-syntax-ns#"
   xmlns:svg="http://www.w3.org/2000/svg"
   xmlns="http://www.w3.org/2000/svg"
   xmlns:sodipodi="http://sodipodi.sourceforge.net/DTD/sodipodi-0.dtd"
   xmlns:inkscape="http://www.inkscape.org/namespaces/inkscape"
   width="22"
   height="22"
   viewBox="0 0 22 22"
   version="1.1"
   id="svg7"
   sodipodi:docname="edit-cut-symbolic.svg"
   inkscape:version="0.92.1 r">
  <metadata
     id="metadata11">
    <rdf:RDF>
      <cc:Work
         rdf:about="">
        <dc:format>image/svg+xml</dc:format>
        <dc:type
           rdf:resource="http://purl.org/dc/dcmitype/StillImage" />
        <dc:title></dc:title>
      </cc:Work>
    </rdf:RDF>
  </metadata>
  <sodipodi:namedview
     pagecolor="#ffffff"
     bordercolor="#666666"
     borderopacity="1"
     objecttolerance="10"
     gridtolerance="10"
     guidetolerance="10"
     inkscape:pageopacity="0"
     inkscape:pageshadow="2"
     inkscape:window-width="769"
     inkscape:window-height="480"
     id="namedview9"
     showgrid="false"
     inkscape:zoom="10.727273"
     inkscape:cx="11"
     inkscape:cy="11"
     inkscape:window-x="0"
     inkscape:window-y="0"
     inkscape:window-maximized="0"
     inkscape:current-layer="svg7" />
  <defs
     id="defs3">
    <style
       type="text/css"
       id="current-color-scheme">
   .ColorScheme-Text { color:#1e333d; } .ColorScheme-Highlight { color:#3fb7ff; }
  </style>
  </defs>
  <path
     style="fill:currentColor;opacity:1"
     class="ColorScheme-Text"
     transform="translate(3 3)"
     d="M 4.4980469 2.0078125 C 3.1182599 2.0088855 2 3.1277747 2 4.5078125 C 2 5.8885125 3.1193 7.0078125 4.5 7.0078125 C 4.94608 7.0078125 5.35613 6.8687925 5.71875 6.6640625 L 7.6875 8.5078125 L 5.71875 10.351562 C 5.35875 10.146563 4.9480469 10.007812 4.4980469 10.007812 C 3.1173469 10.007812 1.9980469 11.127113 1.9980469 12.507812 C 1.9980469 13.888512 3.1173469 15.007812 4.4980469 15.007812 C 5.8787469 15.007812 6.9980469 13.888512 6.9980469 12.507812 C 6.9980469 12.278652 6.9619969 12.062402 6.9042969 11.851562 L 9.0292969 9.7890625 L 13.498047 14.007812 L 14.998047 14.007812 L 14.998047 13.007812 L 6.9042969 5.1640625 C 6.9620969 4.9532225 6.9980469 4.7369725 6.9980469 4.5078125 C 6.9980469 3.1277747 5.879787 2.0088855 4.5 2.0078125 L 4.4980469 2.0078125 z M 13.5 3.0078125 L 9.5625 6.7265625 L 10.875 8.0078125 L 15 4.0078125 L 15 3.0078125 L 13.5 3.0078125 z M 4.5 3.5078125 C 5.05228 3.5078125 5.5 3.9555325 5.5 4.5078125 C 5.5 5.0600925 5.05228 5.5078125 4.5 5.5078125 C 3.94772 5.5078125 3.5 5.0600925 3.5 4.5078125 C 3.5 3.9555325 3.94772 3.5078125 4.5 3.5078125 z M 4.5 11.507812 C 5.05228 11.507812 5.5 11.955532 5.5 12.507812 C 5.5 13.060093 5.05228 13.507812 4.5 13.507812 C 3.94772 13.507812 3.5 13.060093 3.5 12.507812 C 3.5 11.955532 3.94772 11.507812 4.5 11.507812 z"
     id="path5" />
</svg>

<svg xmlns="http://www.w3.org/2000/svg" width="22" height="22" version="1.1" id="svg7"><defs id="defs3"><style type="text/css" id="current-color-scheme"></style></defs><path transform="translate(3 3)" d="M4.498 2.008a2.5 2.5 0 0 0 .002 5c.446 0 .856-.14 1.219-.344l1.968 1.844-1.968 1.844a2.459 2.459 0 0 0-1.221-.344 2.5 2.5 0 1 0 2.5 2.5c0-.23-.036-.446-.094-.656L9.03 9.789l4.469 4.219h1.5v-1L6.904 5.164a2.46 2.46 0 0 0 .094-.656 2.5 2.5 0 0 0-2.498-2.5h-.002zm9.002 1L9.562 6.727l1.313 1.28 4.125-4v-1h-1.5zm-9 .5a1 1 0 1 1 0 2 1 1 0 0 1 0-2zm0 8a1 1 0 1 1 0 2 1 1 0 0 1 0-2z" id="path5" fill="currentColor" opacity="1" color="#1e333d"/></svg>
